Obsidian/places/16/folder-text.svg

<svg viewBox="0 0 16 16" xmlns="http://www.w3.org/2000/svg"><path d="m2 2v1h6v-1zm0 2v1h12v-1zm0 2v1h10v-1zm0 3v1h6v-1zm0 2v1h12v-1zm0 2v1h9v-1z" fill="#f2f2f2"/></svg>

<svg xmlns="http://www.w3.org/2000/svg" viewBox="0 0 16 16">
  <defs id="defs3051">
    <style type="text/css" id="current-color-scheme">
      .ColorScheme-Text {
        color:#f2f2f2;
      }
      </style>
  </defs>
    <path 
        style="fill:currentColor;fill-opacity:1;stroke:none" 
        d="M 2 2 L 2 3 L 8 3 L 8 2 L 2 2 z M 2 4 L 2 5 L 14 5 L 14 4 L 2 4 z M 2 6 L 2 7 L 12 7 L 12 6 L 2 6 z M 2 9 L 2 10 L 8 10 L 8 9 L 2 9 z M 2 11 L 2 12 L 14 12 L 14 11 L 2 11 z M 2 13 L 2 14 L 11 14 L 11 13 L 2 13 z "
        class="ColorScheme-Text"/>
</svg>
